X:1
T:Hold Up the Grand Old Bible
T:Charles Hutchinson Gabriel, 1907
T:Hold Up the Grand Old Bible
T:Public Domain
T:Public Domain
T:Public Domain
C:Charles Hutchinson Gabriel, 1907
Z:Public Domain
%%score ( 1 2 ) ( 3 4 )
L:1/8
M:4/4
K:G
V:1 treble 
V:2 treble 
V:3 bass 
V:4 bass 
V:1
 DE[DF] | G2 [DG]2 [DG][GB][Gd][GB] | [EA]4 [CE][CE][DF][EG] | [DB]2 [CA]2 [CF]2 D2 | %4
w: 1.~Hold up the|Bi- ble to the peo- ple!|ny it or ne- glect|it ne- ver! Un-|
w: 2.~Hold up the|Bi- ble and pro- claim it|Word of God by pro-|phets spok- en; His|
w: 3.~Hold up the|Bi- ble of our fa- thers,|send it un- to ev-|’ry na- tion; It|
w: 4.~Hold up the|Bi- ble, proud- ly own it,|lieve, and search its sac-|red pag- es; There|
 (D2 F2) [Gd]DEF | G2 [DG]2 [DG][GB][Gd][GB] | [EA]4 [Ec][CE][DF][EG] | [Dd]2 [DB]2 [^CG]2 [CB]2 | %8
w: ing * it has stood the|And it shall stand un- changed|ev- er! * * *||
w: im- * print- ed glows up-|And not a pre- cept can|brok- en. O bless- èd|book, the on- ly|
w: the * cloud by day, the|That lights the way un- to|va- tion. * * *||
w: may * find the way of|Im- mor- tal life through end-|ag- es. * * *||
 [CA]4 [B,G] ||"^Refrain" BBB | (z ^DEF [GB]) | B^c^d | (z FGA) [Ge]2 [=Fd]2 | %13
w: |||||
w: book, The|pow’rs of earth||* change it|* * * ne- ver!|
w: |||||
w: |||||
 [Ec]2 E2 [EB]2 [EG]2 | [DF]2 [FA]2 [Ed]/[Fd]/D EF | G2 [DG]2 [DG][GB][Gc][Gd] | %16
w: |||
w: * test of fire|and flood through ag- es it hath|shall stand un- changed for- ev-|
w: |||
w: |||
 [Ae]2 [Ge]2 [GA][GA][GB][Fc] | [Gd]2 [Fd]2 [Gd]2 [GB]2 | (F2 E2) [DG] |] %19
w: |||
w: |||
w: |||
w: |||
V:2
 DE x | G2 x6 | x8 | x6 D2 | d4 DEF x | G2 x6 | x8 | x8 | x5 || x3 | B4- x | x3 | e4- x4 | x8 | %14
w: grand old|De-||fail-|test of ag- es,|for-|||||||||
w: grand old|The||seal|on its pag- es,|be|||||can||The||
w: grand old|And||is|fire in dark- ness,|sal-|||||||||
w: grand old|Be-||you|life e- tern- al—|less|||||||||
 x5 DEF | G2 x6 | x8 | x8 | A4 x |] %19
w: |||||
w: stood, And it|er.||||
w: |||||
w: |||||
V:3
 D,E,F, | G,2 [G,B,]2 [G,B,][G,D][G,B,][G,D] | [C,C]4 [C,G,][C,G,][C,G,][C,G,] | %3
w: ~ ~ ~|~ ~ ~ ~ ~ ~|~ ~ ~ ~ ~|
 [D,F,]2 [D,F,]2 [D,A,]2 [C,F,]2 | ([B,,G,]2 [A,,C]2) [G,,B,]D,E,F, | %5
w: ~ ~ ~ ~|~ * ~ ~ ~ ~|
 G,2 [G,B,]2 [G,B,][G,D][G,B,][G,D] | [C,C]4 [C,G,][C,G,][C,G,][C,G,] | %7
w: ~ ~ ~ ~ ~ ~|~ ~ ~ ~ O|
 [B,,G,]2 [G,,G,]2 [E,A,]2 [A,,G,]2 | [D,F,]4 [G,,G,] || z z2 | z [B,,B,][^C,B,][^D,B,] [E,B,] | %11
w: bless- èd book The|on- ly||book * * *|
 z z2 | z [^D,B,][E,B,][F,B,] [G,B,]2 [^G,,^G,B,]2 | [A,,A,]2 [B,,^G,]2 [C,A,]2 [^C,A,]2 | %14
w: |||
 [D,A,]2 [D,D]2 [D,A,]/[D,A,]/D, E,F, | G,2 [G,B,]2 [G,B,][=F,D][E,C][D,B,] | %16
w: ||
 [C,C]2 [C,C]2 [C,E][C,E][B,,D][A,,C] | [G,,B,]2 [A,,C]2 [B,,D]2 [G,,D]2 | [B,,C]4 [G,,B,] |] %19
w: |||
V:4
 D,E,F, | G,2 x6 | x8 | x8 | x5 D,E,F, | G,2 x6 | x8 | x8 | x5 || x3 | x5 | x3 | x8 | x8 | %14
w: ~ ~ ~|~|||~ ~ ~|~|||||||||
 x5 D,E,F, | G,2 x6 | x8 | x8 | x5 |] %19
w: |||||

